X:1
T:Nun Bitten Wir, 99.11.10.4
T:Nun Bitten Wir, 99.11.10.4
T:Anonymous, circa 1100
T:Public Domain Courtesy of the Cyber Hymnal™
C:Anonymous, circa 1100
Z:Public Domain
Z:Courtesy of the Cyber Hymnal™
%%score ( 1 2 ) ( 3 4 )
L:1/8
Q:1/4=140
M:none
K:F
V:1 treble 
V:2 treble 
V:3 bass 
V:4 bass 
V:1
 [CF]4 [EG]2 [EG]2 [CF]4 [B,D]4 C4 [B,D]4 [B,E]4 [CF]8 | %1
 [FA]4 [Fc]4 [Fd]4 [Ec]4 [CA]4 [CF]4 [B,D]4 [B,E]4 [CF]8 | %2
 [FA]3 [FA] [FA]2 [EG]2 [FA]4 [DF]2 [CF]2 [DG]2 [EG]2 [FA]4 [DF]4 | %3
 [DG]2 [EG]2 [FA]4 [CF]4 [B,D]4 [A,F]2 [A,F]2 [CG]4 ([CF]4 [B,D]4) [A,C]4 | %4
 [B,D]3 [B,E] [B,F]4 [B,F]4 z4 |] %5
V:2
 x16 C4 x16 | x40 | x28 | x36 | x16 |] %5
V:3
 [F,A,]4 [C,C]2 [C,C]2 [F,,A,]4 [B,,F,]4 [A,,F,]4 [B,,F,]4 [G,,G,]4 [F,,A,]8 | %1
 [F,C]4 [A,,C]4 [B,,B,]4 [C,G,]4 [F,,F,]4 [A,,F,]4 [B,,F,]4 [G,,G,]4 [F,,A,]8 | %2
 [F,C]3 [F,C] [A,,C]2 [C,C]2 [F,C]4 [B,,B,]2 [A,,F,]2 [G,,B,]2 [C,C]2 [F,,C]4 [B,,B,]4 | %3
 [G,,B,]2 [C,C]2 [F,,C]4 [A,,F,]4 [B,,F,]4 [D,F,]2 [D,F,]2 [C,E,]4 F,8 [F,,F,]4 | %4
 [B,,F,]3 [G,,G,] (B,2 A,G,) [F,,A,]4 z4 |] %5
V:4
 x36 | x40 | x28 | x24 (A,,4 B,,4) x4 | x4 F,,4 x8 |] %5

